X: 0
T: The Reconciliation
C: Trad
R: reel
M: 4/4
L: 1/8
K: A
|: "A" A2 (3cBA eA fA| eA "D" fA ecBc| "A" A2 (3cBA eA "D"fA| "E"ecBc AFEF|
"A" A2 (3cBA eA "(D)"fA| "A"eA "D"fA ec Bc|  "A"AB AF Ec df| "E"ecBc "A"A2 cB:| 
|: "A" A2ce a2af| efed cdcB|"D"A2ce a2ag| "E"fbba gbeg|
"F#m7" agae faec| "D"dBcA BAFG|  ABAF Ecdf|1 "E"ecBc "A"A2cB:|2 "E"ecBc "A"A|]